X:1
T: Portabella
N:
C:
S:
A:
O:
R:
M:4/4
K:Am
I:speed 200
%W: A1
% voice 1 (1 lines, 31 notes)
K:Am
M:4/4
L:1/16
c6 B2 A2 B2 c2 d2 |e4 A4 A4 e4 |a4 a4 g6 f2 |e6 d2 c4 e4 |f6 e2 d4 e4 |c8 B4 e4 |A4 d2 e2 c6 B2 |B16 |
%W: A2
% voice 1 (1 lines, 31 notes)
c6 B2 A2 B2 c2 d2 |e4 A4 A4 e4 |a4 a4 g6 f2 |e6 d2 c4 e4 |f6 e2 d4 e4 |c8 B4 e4 |A4 d2 e2 c6 B2 |B16 |
%W: B1
% voice 1 (1 lines, 32 notes)
e6 f2 g4 f2 e2 |d12 d2 g2 |f4 e4 a6 b2 |^g6 ^f2 e6 e2 |a6 g2 f2 e2 d4 |g6 f2 e2 d2 c4 |d4 e2 B2 B6 A2 |A16 |
%W: B2
% voice 1 (1 lines, 32 notes)
e6 f2 g4 f2 e2 |d12 d2 g2 |f4 e4 a6 b2 |^g6 ^f2 e6 e2 |a6 g2 f2 e2 d4 |g6 f2 e2 d2 c4 |d4 e2 B2 B6 A2 |A16 ||
